X:1
T:Zvirovići, 77.77.87.87
T:Zvirovići, 77.77.87.87
T:L. B. Shook, 1883
T:Public Domain Courtesy of the Cyber Hymnal™
C:L. B. Shook, 1883
Z:Public Domain
Z:Courtesy of the Cyber Hymnal™
%%score ( 1 2 ) ( 3 4 )
L:1/8
Q:1/4=100
M:4/4
K:Ab
V:1 treble 
V:2 treble 
V:3 bass 
V:4 bass 
V:1
 [CE]>[CE] | [Ec]3 [FB] (AG) (FG) | [EA]6 [CE]>[CE] | [ce]3 [=B=d] ([ce][Bd]) ([ce][_B_d]) | %4
 [Ac]6 [CE]>[CE] | [Ec]3 [DB] ([CA][DB]) ([Ec][_Ge]) | [Fd]6 [Fd]>[Af] | [Ae]3 [Ac] (ed) (cB) | %8
 A6 [GB]>[GB] | [GB]3 [EG] (Be) ([B=d][Ac]) | ([GB]>[FA]) [EG]4 [EB]>[EB] | %11
 [=DB]3 [Dc] (BF) ([EG][FA]) | [EG]6 [EG]>[FA] | [GB]3 [Ge] [Ge]3 [GB] | %14
 [B=d]4 !fermata![Ac]2 [EA]>[Ec] | [EB]3 [EG] (BA) (GF) | E4 z2 |] %17
V:2
 x2 | x4 E2 E2 | x8 | x8 | x8 | x8 | x8 | x4 G2 G2 | A6 x2 | x4 G2 x2 | x8 | x4 =D2 x2 | x8 | x8 | %14
 x8 | x4 =D2 D2 | E4 x2 |] %17
V:3
 A,>A, | A,3 [D,D] (CB,) (A,D) | [A,C]6 A,>A, | A,3 A, A,2 [E,G,]2 | [A,,A,]6 [A,,A,]>[A,,A,] | %5
 [A,,A,]3 [A,,A,] [A,,A,]2 A,2 | [D,A,]6 [D,D]>[D,D] | [E,C]3 [E,E] (CB,) (ED) | %8
 [A,,C]6 [E,E]>[E,E] | [E,E]3 [E,B,] [E,B,]2 [B,,B,]2 | [B,,B,]2 [E,B,]4 [E,G,]>[E,G,] | %11
 [B,,F,]3 [B,,F,] [B,,B,]2 [B,,B,]2 | [E,B,]6 [E,B,]>[E,B,] | [E,E]3 [E,B,] [E,B,]3 [E,E] | %14
 [G,E]4 !fermata![A,E]2 [A,C]>A, | [G,B,]3 [B,,B,] (G,F,) (B,A,) | [E,G,]4 z2 |] %17
V:4
 A,>A, | A,3 E,2 E,3 | x6 A,>A, | A,3 A, A,2 x2 | x8 | x6 (A,,C,) | x8 | x4 E,2 E,2 | x8 | x8 | %10
 x8 | x8 | x8 | x8 | x15/2 A,/ | x4 B,,2 B,,2 | x6 |] %17

